packages/core/src/svgs/tokens/mono/RIN.svg

<svg width="24" height="24" viewBox="0 0 24 24" fill="none" xmlns="http://www.w3.org/2000/svg">
<path d="M14.7308 13.25H15.5183C15.637 13.25 15.7494 13.35 15.7494 13.4687V14.2812C15.7494 14.4063 15.637 14.4999 15.5183 14.4999H14.9619C14.7245 14.4999 14.4995 14.8499 14.4995 15.0938V15.4938C14.4995 15.625 14.4057 15.75 14.2808 15.75H9.71822C9.59325 15.75 9.49948 15.625 9.49948 15.5001V15.0938C9.49948 14.9062 9.24325 14.4999 9.03701 14.4999H8.44951C8.33701 14.4999 8.24951 14.4063 8.24951 14.2812V13.4687C8.24951 13.35 8.33701 13.25 8.44951 13.25H9.27446C9.38704 13.25 9.49948 13.35 9.49948 13.4687V14.125C9.49948 14.3875 9.73704 14.4999 9.99954 14.4999H13.9994C14.2619 14.4999 14.4995 14.3875 14.4995 14.125V13.4687C14.4995 13.35 14.6119 13.25 14.7308 13.25Z" fill="white"/>
<path d="M21.9812 10.4688L21.9937 10.5749L22 10.6813V15.75C21.9 16.3374 21.4687 16.8125 20.8937 16.9687L20.7811 16.9999L20.7499 17.025L20.725 17.0499L20.6936 17.075L20.6687 17.1062L20.6438 17.1312L20.6187 17.1625L20.6 17.2L20.5812 17.2312L20.5624 17.2687L20.3874 17.7062L20.2 18.0874C20.0625 18.3375 16.9625 20.6374 16.9625 20.6374C16.9625 20.6374 15.3561 21.3749 11.9999 21.3749C8.64372 21.3749 7.03748 20.6374 7.03748 20.6374C7.03748 20.6374 3.93749 18.3375 3.79999 18.0874L3.61249 17.6999L3.43749 17.2624L3.39999 17.2L3.38124 17.1625L3.35625 17.1312L3.33124 17.1062L3.30624 17.075L3.27499 17.0499L3.24999 17.025L3.21874 16.9999L3.03124 16.9312C2.7646 16.8265 2.52955 16.6547 2.34888 16.4323C2.16819 16.2101 2.04801 15.9448 2 15.6625V10.5749L2.03749 10.3625L2.06249 10.2562L2.09374 10.1563L2.13125 10.0562L2.175 9.95618L2.22499 9.86241L2.28749 9.77491L2.34374 9.68128L2.40625 9.59991L2.56249 9.44372L2.64373 9.37503L2.73125 9.31247L2.82499 9.24991L2.98124 9.15628L3.04374 9.10626L3.09999 9.04997L3.14999 8.98748L3.16873 8.94997L3.18749 8.91872L3.19999 8.88123L3.21874 8.84372L3.3125 8.59373L3.43123 8.34373L3.56248 8.09373L3.71249 7.86248L3.87499 7.63748L4.04999 7.42499L4.24374 7.22498L4.44999 7.03748L4.66874 6.86248L4.79373 6.73749L4.83124 6.67498L5.10624 6.23748L5.41249 5.81874L5.73748 5.41873L6.09373 5.04374L6.47498 4.68748L6.87497 4.35624L7.29997 4.04999L7.73747 3.77499L8.19998 3.52499L8.67497 3.3L9.16248 3.11249L9.66254 2.95L10.175 2.82499L10.6875 2.725L11.2125 2.66249L11.7374 2.625H12.2624L12.7874 2.65625L13.3124 2.71874L13.8249 2.81875L14.3375 2.95L14.8374 3.11249L15.3249 3.3L15.7999 3.52499L16.2562 3.77499L16.7 4.04999L17.125 4.3625L17.525 4.68748L17.8999 5.04374L18.2624 5.41873L18.5875 5.81874L18.8938 6.23748L19.1687 6.67498L19.2061 6.73749L19.2562 6.78748L19.275 6.81249L19.3062 6.83748L19.3313 6.86248L19.55 7.03748L19.7562 7.22498L19.9438 7.42499L20.1312 7.63748L20.2875 7.86248L20.4374 8.09373L20.5687 8.34373L20.6875 8.59373L20.7811 8.84372L20.7999 8.88123L20.8125 8.91872L20.8311 8.94997L20.85 8.98748L20.9 9.04997L20.9812 9.1312L21.0124 9.15628L21.0499 9.17495L21.1749 9.24991L21.2686 9.31247L21.3561 9.37503L21.4374 9.44372L21.5125 9.51868L21.5874 9.59991L21.65 9.68128L21.7124 9.77491L21.775 9.86241L21.825 9.95618L21.8688 10.0562L21.9062 10.1563L21.9374 10.2562L21.9624 10.3625L21.9812 10.4688ZM19.0749 14.2687L19.1875 13.0312L19.2124 11.7937L19.15 10.55L19.0125 9.31874L18.7812 8.09373L18.7749 8.05622L18.7625 8.02499L18.7562 7.99998L18.75 7.99373L18.7312 7.96248L18.7188 7.93123L18.4687 7.54374L18.1875 7.16873L17.8812 6.81249L17.5499 6.47499L17.1999 6.16248L16.825 5.86873L16.4312 5.59373L16.0124 5.34373L15.5812 5.11874L15.1374 4.92499L14.675 4.74999L14.2063 4.60624L13.725 4.49375L13.2375 4.40625L12.7437 4.34374L12.2438 4.31875H11.75L11.2499 4.35L10.7624 4.40625L10.275 4.49375L9.79379 4.60624L9.32494 4.74999L8.86247 4.92499L8.41873 5.11874L7.98122 5.34373L7.56873 5.59373L7.17498 5.86873L6.79999 6.16248L6.44373 6.47499L6.11873 6.81249L5.81248 7.16873L5.53123 7.54374L5.28124 7.93123L5.26248 7.96248L5.24999 7.99373V7.99998L5.23749 8.02499L5.22499 8.05622L5.21874 8.09373L4.98749 9.31874L4.84374 10.55L4.78124 11.7937L4.81249 13.0312L4.92498 14.2687L5.11248 15.5L5.39999 16.7125L5.40623 16.7499L5.42499 16.7812L5.43748 16.8186L5.49373 16.9124L5.51873 16.9375L5.54374 16.9687L5.57498 16.9936L5.59999 17.0187L5.63124 17.0437L5.66873 17.0625L5.69998 17.0811L6.38748 17.4125L7.08748 17.7124L7.81248 17.9624L8.54997 18.1811L9.3 18.3499L10.0687 18.4811L10.8375 18.5686L11.5999 18.6124H12.4L13.1625 18.5686L13.9312 18.4811L14.6938 18.3562L15.4499 18.1811L16.1874 17.9687L16.9125 17.7124L17.6187 17.4125L18.2999 17.0811L18.3311 17.0625L18.3688 17.0437L18.4 17.0187L18.4249 16.9936L18.4563 16.9687L18.4812 16.9375L18.5061 16.9124L18.5624 16.8186L18.575 16.7812L18.5875 16.7499L18.5999 16.7125L18.8812 15.5L19.0749 14.2687Z" fill="white"/>
</svg>

<svg xmlns="http://www.w3.org/2000/svg" width="24" height="24" fill="none" viewBox="0 0 24 24">
    <path fill="#fff" d="M14.73 13.25h.788c.119 0 .231.1.231.219v.812c0 .125-.112.219-.23.219h-.557c-.237 0-.463.35-.463.594v.4c0 .131-.093.256-.218.256H9.718c-.125 0-.219-.125-.219-.25v-.406c0-.188-.256-.594-.462-.594H8.45c-.113 0-.2-.094-.2-.219v-.812c0-.119.087-.219.2-.219h.824c.113 0 .225.1.225.219v.656c0 .262.238.375.5.375h4c.263 0 .5-.113.5-.375v-.656c0-.119.113-.219.232-.219"/>
    <path fill="#fff" d="m21.981 10.469.013.106.006.106v5.069a1.53 1.53 0 0 1-1.106 1.219l-.113.03-.031.026-.025.025-.031.025-.025.031-.025.025-.025.032-.019.037-.019.031-.019.038-.175.437-.187.381c-.137.25-3.238 2.55-3.238 2.55s-1.606.738-4.962.738-4.963-.738-4.963-.738-3.1-2.3-3.237-2.55l-.188-.387-.175-.438L3.4 17.2l-.019-.037-.025-.032-.025-.025-.025-.031-.031-.025-.025-.025L3.219 17l-.188-.069A1.66 1.66 0 0 1 2 15.662v-5.087l.037-.212.025-.107.032-.1.037-.1.044-.1.05-.094.062-.087.057-.094.062-.081.156-.156.082-.069.087-.063.094-.062.156-.094.063-.05.056-.056.05-.063.019-.037.018-.031.013-.038.019-.037.094-.25.118-.25.131-.25.15-.232.163-.225.175-.212.194-.2.206-.188.219-.175.125-.125.037-.062.275-.438.306-.418.325-.4.357-.375.381-.357.4-.33.425-.307.437-.275.463-.25.475-.225.487-.188.5-.162.513-.125.512-.1.526-.063.524-.037h.525l.525.031.525.063.513.1.513.131.5.162.487.188.475.225.456.25.444.275.425.313.4.324.375.357.362.375.325.4.307.418.275.438.037.062.05.05.019.025.031.025.025.025.219.175.206.188.188.2.187.212.157.225.15.232.13.25.12.25.093.25.019.037.012.038.02.031.018.037.05.063.081.081.031.025.038.019.125.075.094.062.087.063.081.069.075.075.075.08.063.082.062.094.063.087.05.094.044.1.037.1.031.1.025.107zm-2.906 3.8.113-1.238.024-1.237-.062-1.244-.137-1.231-.232-1.225-.006-.038-.012-.031L18.755 8l-.006-.006-.019-.032-.012-.03-.25-.388-.282-.375-.306-.357-.331-.337-.35-.313-.375-.293-.394-.275-.419-.25-.43-.225-.445-.194-.462-.175-.469-.144-.481-.112-.487-.088-.494-.062-.5-.025h-.494l-.5.031-.488.056-.487.088-.481.112-.47.144-.462.175-.443.194-.438.225-.412.25-.394.275-.375.293-.356.313-.325.337-.307.357-.28.375-.25.387-.02.031-.012.032V8l-.013.025-.012.031-.006.038-.232 1.225-.143 1.231-.063 1.244.031 1.237.113 1.238.187 1.231.288 1.212.006.038.019.031.012.038.057.093.025.026.025.03.031.026.025.025.031.025.038.018.031.02.687.33.7.3.725.25.738.22.75.168.769.131.768.088.763.043h.8l.762-.043.77-.088.762-.125.756-.175.737-.212.726-.257.706-.3.68-.33.032-.02.038-.018.031-.025.025-.025.031-.025.025-.032.025-.025.056-.093.013-.038.012-.031.013-.038.281-1.212z"/>
</svg>
